public/work/bahiazul/icon.svg

<svg height="1024" viewBox="0 0 1024 1024" width="1024" xmlns="http://www.w3.org/2000/svg"><path d="m308.903351 814.870361s-49.515595-8.697448-49.795777-8.697448c.280182-212.712525 89.37497-398.593995 206.051331-434.109253-91.468597 70.211486-156.022278 241.967834-156.255554 442.806701m546.211578 37.613037s0-60.455444-48.815368-60.002563c-2.227295-238.045532-111.054993-433.856201-251.839173-466.934021v-38.791931c-19.519592 0-23.087097-25.825745-23.087097-25.825745l-16.97229-140.689636c0-5.733765-5.434967-5.633911-5.434967 0 0 .106506-16.991821 140.689636-16.991821 140.689636s-3.521057 25.825745-23.04065 25.825745v39.018249c-140.117523 33.730591-247.764404 228.94867-250.838836 466.254822-49.809052 0-49.809052 60.242371-49.809052 60.242371l343.414825 56.759155z" fill="#2083d5"/></svg>

<?xml version="1.0" encoding="UTF-8"?>
<!-- Generated by Pixelmator Pro 3.8 -->
<svg width="1024" height="1024" viewBox="0 0 1024 1024" xmlns="http://www.w3.org/2000/svg">
    <g id="work">
        <path id="bahiazul" fill="#2083d5" stroke="none" d="M 308.903351 814.870361 C 308.903351 814.870361 259.387756 806.172913 259.107574 806.172913 C 259.387756 593.460388 348.482544 407.578918 465.158905 372.06366 C 373.690308 442.275146 309.136627 614.031494 308.903351 814.870361 M 855.114929 852.483398 C 855.114929 852.483398 855.114929 792.027954 806.299561 792.480835 C 804.072266 554.435303 695.244568 358.624634 554.460388 325.546814 L 554.460388 286.754883 C 534.940796 286.754883 531.373291 260.929138 531.373291 260.929138 L 514.401001 120.239502 C 514.401001 114.505737 508.966034 114.605591 508.966034 120.239502 C 508.966034 120.346008 491.974213 260.929138 491.974213 260.929138 C 491.974213 260.929138 488.453156 286.754883 468.933563 286.754883 L 468.933563 325.773132 C 328.81604 359.503723 221.169159 554.721802 218.094727 792.027954 C 168.285675 792.027954 168.285675 852.270325 168.285675 852.270325 L 511.7005 909.02948 Z"/>
    </g>
</svg>
